teeny/solid/image-alt.svg

<svg width="15" height="15" viewBox="0 0 15 15" fill="none" xmlns="http://www.w3.org/2000/svg">
<path d="M11 4H10V3H11V4Z" fill="black"/>
<path fill-rule="evenodd" clip-rule="evenodd" d="M0 1.5C0 0.671573 0.671573 0 1.5 0H13.5C14.3284 0 15 0.671573 15 1.5V13.5C15 13.5032 15 13.5065 15 13.5097C14.9948 14.3337 14.3252 15 13.5 15H1.5C0.885073 15 0.35657 14.63 0.125003 14.1004C0.112847 14.0726 0.101509 14.0444 0.0910197 14.0157C0.0806793 13.9875 0.0711637 13.9589 0.0625022 13.9299C0.0226903 13.7965 0.000921331 13.6554 2.8604e-05 13.5094C9.54385e-06 13.5062 0 13.5031 0 13.5V1.5ZM14 8.28693L11.5 5.78856L8.54145 8.74518L4.49975 3.69635L1 8.07388V1.5C1 1.22386 1.22386 1 1.5 1H13.5C13.7761 1 14 1.22386 14 1.5V8.28693Z" fill="black"/>
</svg>

<svg viewBox="0 0 15 15" xmlns="http://www.w3.org/2000/svg"><g><path d="M11 4h-1V3h1v1Z"/><path fill-rule="evenodd" d="M0 1.5C0 .67.67 0 1.5 0h12c.82 0 1.5.67 1.5 1.5v12s0 0 0 0c-.01.82-.68 1.49-1.5 1.49h-12c-.62 0-1.15-.37-1.38-.9 -.02-.03-.03-.06-.04-.09 -.02-.03-.02-.06-.03-.09 -.04-.14-.07-.28-.07-.43 -.01-.01-.01-.01-.01-.01v-12Zm14 6.78l-2.5-2.5 -2.96 2.95 -4.05-5.05 -3.5 4.37V1.47c0-.28.22-.5.5-.5h12c.27 0 .5.22.5.5v6.78Z"/></g></svg>
